X:11
T:Mrs. McDonald
R:jig
D:Laments and Merry Melodies, Theresa Morrison
Z:Paul Stewart Cranford (P.S.C.), <http://www.cranfordpub.com>
Q:300
L:1/8
M:6/8
K:D
e|fed dcB|AFA AFA|fed daf|fee e2 d|
fed dcB|AFA AFA|Aaf ede|fdd d2:|
|:A|FAd dfd|Ace ege|FAd daf|1fee e2 A|
FAd dfd|Ace ege|FAd ede|fdd d2:|
[2bee efg|afd dfd|ecA A2 G|FAd ede|fdd d2|]
